!!!!SEGMENT: pl-wtm--a-34-844-84_boczkowski-jerzy--szumialy-mu-echa-kawiarni-w-kawiarni-stalym-gosciem-byl.krn
!!!cenid: 19xx:32
!!!COM: Boczkowski, Jerzy
!!!COM-rismID: pe50047498
!!!CDT: 1882-1953
!!!CNT: Polish
!!!OTL: Szumiały mu echa kawiarni/W kawiarni stałym gościem był
!!!PDT:
!!!AGN: Secular
!!!YEC: Copyright 2022 Narodowy Instytut Fryderyka Chopina (https://polishscores.org)
!!!YEM: License CC-BY-4.0 (https://creativecommons.org/licenses/by/4.0)
!!!SMS-siglum: PL-Wtm
!!!SMS-shelfmark: A.34.844-84
!!!SMS-variant:
!!!SMS-altvar:
!!!SMS-shelfwork: W
!!!NIFC-rismSourceID: 1001157930
!!!NIFC-rismChildID: 1001157930
!!!NIFC-islandoraID: pl-wtm:2804
!!!URL-pdf-islandora: https://repozytorium.nifc.pl/islandora/object/pl-wtm%3A2804/datastream/PDF/view
!!!URL-scan: https://polish.musicsources.pl/pl/lokalizacje/galeria/druki-muzyczne/15517/2 @EN{Scan on Polish Music Sources Website} @PL{Skany w portalu Dziedzictwo Muzyki Polskiej w otwartym dostępie}
!!!IIIF:
!!!ONB-nifc:
!!!OMD: Vivace
!!!AIN: 1 piano 1 vox
!!!key:
**kern	**kern	**kern	**text	**text	**text
*part2	*part2	*part1	*part1	*part1	*part1
*staff3	*staff2	*staff1	*staff1	*staff1	*staff1
*I"[Pianoforte]	*	*I"[Voce]	*	*	*
*Ipiano	*	*Ivox	*	*	*
*ICklav	*	*ICvox	*	*	*
*IGacmp	*	*IGsolo	*	*	*
*clefF4	*clefG2	*clefG2	*	*	*
*k[f#c#g#]	*k[f#c#g#]	*k[f#c#g#]	*	*	*
*A:	*A:	*A:	*	*	*
*M2/4	*M2/4	*M2/4	*	*	*
8r	8e/	8r	.	.	.
=1	=1	=1	=1	=1	=1
8AA\L	8a\L 8cc#	2r	.	.	.
8E\J 8A 8c#	8a\J 8cc#	.	.	.	.
8C#\L	8cc#\L 8ee	.	.	.	.
8E\J 8A 8c#	8cc#\J 8ee	.	.	.	.
=2	=2	=2	=2	=2	=2
8DD\L 8D	16b\LL 16dd	2r	.	.	.
.	16cc#\JJ 16ee	.	.	.	.
8D\ 8F# 8B	4dd\ 4ff#	.	.	.	.
8D\J 8F# 8B	.	.	.	.	.
8r	16cc#\LL 16ee#X	.	.	.	.
.	16dd\JJ 16ff#	.	.	.	.
=3	=3	=3	=3	=3	=3
4E\ 4A 4c#	16a:\LL 16cc#: 16ee: 16aa:	2r	.	.	.
.	16ee\	.	.	.	.
.	16cc#\	.	.	.	.
.	16a\JJ	.	.	.	.
8BBB/L 8BB	8A/L 8d#X 8f#	.	.	.	.
8EEE/J 8EE	8B/J 8dn 8g#	.	.	.	.
=4	=4	=4	=4	=4	=4
8AA/L 8A	4.c#/ 4.e 4.a	4r	.	.	.
8EE/ 8E	.	.	.	.	.
8AAA/J 8AA	.	8r	.	.	.
*	*	*	*v:1	*v:2	*v:3
!	!LO:TX:a:B:t=Moderato.	!LO:TX:a:B:t=Moderato	!	!	!
8r	8e/	8e/	W ka-	Wtem	W wi-
!!LO:LB:g=original
=5	=5	=5	=5	=5	=5
8AA\L	8a\L 8cc#	8cc#\	-wia-	woj-	-chu-
8E\J 8A 8c#	8a\J 8cc#	8cc#\	-rni	-ny	-rze,
8C#\L	8cc#\L 8ee	8ee\	sta-	grom	de-
8E\J 8A 8c#	8cc#\J 8ee	8ee\	-łym	znie-	-szczu,
=6	=6	=6	=6	=6	=6
8BB\L	8b\L 8dd	8dd\	go-	-na-	no-
8E\J 8G# 8d	8b\J 8dd	8dd\	-ściem	-cka	-ce,
8EE\L	8e/L	8e/	był,	padł!	dnie,
8E\J 8G# 8d	16g#/L 16b	(16b\LL	Cel	Na	Prze-
.	16a/JJ 16cc#	16cc#\JJ)	.	.	.
=7	=7	=7	=7	=7	=7
*	*^	*	*	*	*
8BB\L	8b/L 8dd	4r	8dd\	ży-	cza-	-pę-
8E\J 8G# 8d	8b/J 8dd	.	8dd\	-cia	-pkach	-dzał
8EE\L	8f#/L	4d\	8f#/	miał	or-	pod
8E\J 8G# 8d	16g#/L	.	(16g#/LL	u-	-ły	o-
.	16b/JJ	.	16b/JJ)	.	.	.
=8	=8	=8	=8	=8	=8	=8
8AA\L	8f#/	4.c#\	8f#/	-tar-	bły-	-ko-
8E\J 8A	4f#/	.	4f#/	-ty.	-sły!	-pem.
8C#\L	.	.	.	.	.	.
8E\J 8A	8e/	8c#\	8e/	Zwy-	Nasz	O-
*	*v	*v	*	*	*	*
!!LO:LB:g=original
=9	=9	=9	=9	=9	=9
8AA\L	8a\L 8cc#	8cc#\	-czaj-	la-	-sta-
8E\J 8A 8c#	8a\J 8cc#	8cc#\	-nie,	-luś	-tnim
8GG#\L	8b#X\L 8dd#X	8dd#X\	ot,	ka-	kę-
8G#\J 8B#X 8d#X 8f#	8b#\J 8dd#	8dd#\	bez-	-wiar-	-sem
=10	=10	=10	=10	=10	=10
8C#\L	8cc#\L 8ee	8ee\	-myśl-	-nia-	dzie-
8E\J 8G# 8c#	16g#\L 16cc#	(16cc#\LL	-nie	-ny	-lił
.	16f#\JJ 16dd#X	16dd#X\JJ)	.	.	.
8E\L	8g#,\L 8cc# 8ee	8ee,\	żył:	zbladł,	się
8G#\J 8c# 8e	16g#\L	(16g#/LL	ko-	Lecz	Z żoł-
.	16a\JJ	16a/JJ)	.	.	.
=11	=11	=11	=11	=11	=11
*	*^	*	*	*	*
8DD#X\L	8b/L	8d\L	8b\	-bie-	wnet	-nie-
8BB\J 8D#X 8A	8b/J	8d\J	8b\	-tki,	wa-	-rzem,
8BBB\L	16b/LL	4d\	(16b/LL	wi-	ha-	pro-
.	16a/	.	16a/JJ)	.	.	.
8BB\J 8D# 8A	16g#/	.	(16g#/LL	-no,	-nia	-stym
.	16f#/JJ	.	16f#/JJ)	.	.	.
*	*v	*v	*	*	*	*
=12	=12	=12	=12	=12	=12
8EE\L	8e/	8e/	kar-	pry-	chło-
8E\ 8G# 8B	4e/	4e/	-ty!	-sły!	-pem!
8E\J 8G# 8B	.	.	.	.	.
8r	8e/	8e/	Ka-	I	I
!!LO:PB:g=original
=13||	=13||	=13||	=13||	=13||	=13||
*k[]	*k[]	*k[]	*	*	*
8AA\L	8cc\L 8ee	8cc\	-wiar-	gdy	stward-
8E\J 8A 8c	16a\L 16cc	(16a/LL	-nia	mu	-niał
.	16b\JJ 16dd	16b/JJ)	.	.	.
8C\L	8cc\L 8ee	8cc\	do-	pierw-	w o-
8E\J 8A 8c	8a\J 8cc	8a/	-mem	-szych	-gniu
=14	=14	=14	=14	=14	=14
8DD\L 8D	8b\L 8dd	8b\	by-	bi-	ni-
8D\ 8F 8B	8b\J 8dd	8b\	-ła	-tew	-by
8D\J 8F 8B	8b\L 8dd	8b\	dlań,	dym	stal,
8r	16a#X\L 16cc#X	16a#X/	tam	O-	I
.	16b\JJ 16dd	16dd\	od-	.	.
=15	=15	=15	=15	=15	=15
8GGG/L 8GG	8a\L 8ff 8aa	8a/	-dy-	-sma-	nie
8GG/ 8BB 8F	8a\J 8ff 8aa	8a/	-chał	-lił	krył
8GG/J 8BB 8F	8cc\L 8aa 8ccc	8cc\	pier-	twarz	się
8r	8a\J 8ff 8aa	8a/	-sią	po-	już
=16	=16	=16	=16	=16	=16
8CC\L 8C	8a\ 8ff 8aa	8a/	ca-	-bla-	w ką-
8C\ 8E 8G 8c	4g\ 4ee 4gg	4g/	-łą.	-dłą,	-cie!
8C\J 8E 8G 8c	.	.	.	.	.
8r	16f#X\LL 16ff#X	(16f#X/LL	Przy	Hu-	W a-
.	16g\JJ 16gg	16g/JJ)	.	.	.
=17	=17	=17	=17	=17	=17
8E\L 8G#X 8B 8d	8g#X\L 8gg#X	8g#X/	bo-	-mo-	-ta-
8E\J 8G# 8B 8d	8g#\J 8gg#	8g#/	-ku	-rem	-ku
8A\L 8c 8e	8a\L 8aa	8a/	He-	wszyst-	pierw-
8A\J 8c 8e	8a\J 8aa	8a/	-lek,	-kich	-szy,
!!LO:LB:g=original
=18	=18	=18	=18	=18	=18
4G\ 4B 4d 4f	8b\L 8bb	8b\	Zo-	dzi-	jak
.	16a\L 16aa	(16a/LL	-siek,	-wił	na
.	16b\JJ 16bb	16b/JJ)	.	.	.
!	!	!LO:TX:a:i:t=rit.	!	!	!
8A\L 8c 8e	8cc\L 8ccc	8cc,\	Mań,	swym,	bal,
8D\J 8F 8B	16a\L 16aa	16a/	Wca-	Plótł	Po-
.	16f\JJ 16ff	16f/	-le	.	.
=19	=19	=19	=19	=19	=19
4E\ 4A 4c	8e/L 8ee	8e/	spać	co	-rucz-
.	8e/J 8ee	8e/	mu	na	-nik
4F\ 4A 4c	8d/L 8dd	8d/	się	ję-	szedł
.	16c/L 16cc	(16c/LL	nie	-zyk	na
.	16d/JJ 16dd	16d/JJ)	.	.	.
=20	=20	=20	=20	=20	=20
8G#X/L 8B 8d	4.e/ 4.ee	8e/	chcia-	wpa-	fron-
8EE/ 8E	.	4e/	-ło,	-dło!	-cie,
8EE/J 8E	.	.	.	.	.
!	!LO:TX:b:i:t=poco lento	!	!	!	!
8r	8e/	8e/	A	I	Aż
=21	=21	=21	=21	=21	=21
!	!	!LO:TX:b:i:t=poco lento	!	!	!
8r	8f/L	8f/	rank-	tyl-	ku-
8A\ 8B 8d 8f	8a/J	8a/	-kiem	-ko	-la,
4A\ 4B 4d 4f	8cc\L	8cc\	w biu-	cza-	gdy
.	16b\L	(16b/LL	-rze,	-sem	na
.	16a\JJ	16a/JJ)	.	.	.
=22	=22	=22	=22	=22	=22
4E\ 4A 4c	8e/L	8e/	jak	no-	prze-
.	16a/L	(16a/LL	przez	-cne	-dzie
.	16cc/JJ	16cc/JJ)	.	.	.
4D\ 4F 4B	8ee;\L	8ee;\	mgły	mgły,	biegł,
.	8dd\J	8dd\	Zło-	Wskrze-	Prze-
!!LO:LB:g=original
=23	=23	=23	=23	=23	=23
4E\ 4A 4c	8ee\L	8ee\	-ci-	-sza-	-cię-
!	!LO:TX:b:i:t=ral-len-tan-do:ext=cd	!	!	!	!
.	16a\L	(16a\LL	-ste	-ły	-ła
.	16b\JJ	16b\JJ)	.	.	.
!	!	!LO:TX:a:i:t=rit.	!	!	!
8BBB\L 8BB	8.B:/L 8.d#X: 8.f: 8.cc:	8.cc\	ro-	da-	ży-
8BB\J 8D#X 8F 8A	.	.	.	.	.
.	16b/Jk	16b\	-ił	-wne	-cia
=24||	=24||	=24||	=24||	=24||	=24||
*k[f#c#g#]	*k[f#c#g#]	*k[f#c#g#]	*	*	*
*M3/4	*M3/4	*M3/4	*	*	*
*^	*^	*	*	*	*
!	!	!	!	!	!	!	!
4r	2.EE\ 2.E	2.d:/ 2.e: 2.g#: 2.b:	4r	4b\	sny!	sny!	ścieg!
4d/	.	.	4e\	4r	.	.	.
4B/	.	.	4f#\	4r	.	.	.
*v	*v	*	*	*	*	*	*
*	*v	*v	*	*	*	*
=25	=25	=25	=25	=25	=25
!	!LO:TX:t=P:problem:klamra łukowa	!	!	!	!
!	!LO:TUP:b	!	!	!	!
4G#\	12g#/L	4r	.	.	.
.	12a/	.	.	.	.
.	12g#/J	.	.	.	.
4F#\	4f#/	4r	.	.	.
*	*	*	*v:1.2.	*	*v:3.
4E\	4e/	4e/	Szu-	.	Szu-
=26	=26	=26	=26	=26	=26
*	*^	*	*	*	*
!	!	!	!LO:TX:a:t=Valse lente.	!	!	!
4AA/	4a/	4c#\	4a/	-mia-	.	-mia-
2E\ 2A 2c#	4g#/	2e\	4g#/	-ły	.	-ły
.	4f#/	.	4f#/	mu	.	mu
=27	=27	=27	=27	=27	=27	=27
4EE/	4a/	4c#\	4a/	e-	.	e-
2E\ 2A 2c#	4.g#/	2e\	4.g#/	-`cha	.	-cha
.	8f#/	.	8f#/	ka-	.	ka-
*	*v	*v	*	*	*	*
!!LO:LB:g=original
=28	=28	=28	=28	=28	=28
4GG#/	[<2.d/ [>2.g# [>2.b	2.b\	-wiar-	.	-wiar-
4E\ 4G# 4d	.	.	.	.	.
4E\ 4G# 4d	.	.	.	.	.
=29	=29	=29	=29	=29	=29
*	*^	*	*	*	*
4EE/	2d/] 2g#] 2b]	4r	2b\	-ni,.	.	-ni,
4E\ 4G# 4d	.	8r	.	.	.	.
.	.	8A#X\L	.	.	.	.
4E\ 4G# 4d	4d/	8B\	4d/	Ca-	.	Szu-
.	.	8d\J	.	.	.	.
=30	=30	=30	=30	=30	=30	=30
4GG#/	4g#/	2.d\	4g#/	-łu-	.	-mia-
2E\ 2G# 2d	4f#/	.	4f#/	-nem	.	-ły
.	4e/	.	4e/	się	.	ga-
=31	=31	=31	=31	=31	=31	=31
4EE/	4g#/	4d\	4g#/	kła-	.	-łę-
2E\ 2G# 2d	4.f#/	2d\	4.f#/	-dły	.	.
.	8e/	.	8e/	na	.	-zie
=32	=32	=32	=32	=32	=32	=32
4AA/	[2.f#/	4c#\	[2.f#/	skroń!	.	brzóz!
2E\ 2A	.	8B#X\L	.	.	.	.
.	.	8c#\J	.	.	.	.
.	.	8e\L	.	.	.	.
.	.	8g#\J	.	.	.	.
=33	=33	=33	=33	=33	=33	=33
4C#/	2f#/]	4f#\	2f#/]	.	.	.
2E\ 2A	.	4B#X\	.	.	.	.
.	4e/	4c#\	4e/	An-	.	Po-
!!LO:PB:g=original
=34	=34	=34	=34	=34	=34	=34
4A\	4cc#/	2.a\	4cc#\	-toś-	.	-sta-
4c#\ 4e	4b/	.	4b\	-ki,	.	-cie
4c#\ 4e	4a/	.	4a/	Ma-	.	się
=35	=35	=35	=35	=35	=35	=35
4Gn\	4cc#/	2.gn\	4cc#\	-niu-	.	ja-
4A\ 4c# 4e	4b/	.	4b\	-sie,	.	-kieś
4A\ 4c# 4e	4a/	.	4a/	ko-	.	skra-
*	*v	*v	*	*	*	*
=36	=36	=36	=36	=36	=36
4F#\	2.f#:\ 2.a: 2.dd:	4dd\	-le-	.	-da-
4A\ 4d	.	4dd\	-dzy	.	-ły
4A\ 4d	.	4dd\	tak	.	po
=37	=37	=37	=37	=37	=37
4Fn\	2fn:\ 2a: 2dd: 2ffn:	4ffn\	gwar-	.	dar-
4A\ 4d	.	4ff\	-ni	.	-ni
4A\ 4d	4dd\	4dd\	Z za	.	Z mo-
=38	=38	=38	=38	=38	=38
4EE/ 4E	4e:\ 4a: 4cc#: 4ee:	4ee\	mgły	.	-cza-
4E\ 4A 4c#	4cc#\ 4ee	4ee\	u-	.	-rów
4E\ 4A 4c#	4cc#\ 4ee	4ee\	-śmie-	.	wi-
=39	=39	=39	=39	=39	=39
4BBB/ 4BB	4d/ 4a 4b	4b\	-cha-	.	-kli-
2BB\ 2D#X 2F# 2A	4d/ 4a 4b	4b\	-li	.	-ny
.	4f#/ 4a 4b	4b\	się	.	i
!!LO:LB:g=original
=40	=40	=40	=40	=40	=40
*	*^	*	*	*	*
4EE/ 4E	[<2.e:/ [>2.g#: [>2.b: [>2.ee:	4r	[2.ee\	doń!	.	łóz.
4E\ 4G# 4B 4d	.	4e\	.	.	.	.
4DD/ 4D	.	4f#\	.	.	.	.
=41	=41	=41	=41	=41	=41	=41
4BBB/ 4BB	2e\] 2g#] 2b] 2ee]	4g#/	2ee\]	.	.	.
4GGG#/ 4GG#	.	4a/	.	.	.	.
4EEE/ 4EE	4d/ 4e 4b	4ryy	4e/	Ca-	.	Ca-
=42	=42	=42	=42	=42	=42	=42
4AAA/ 4AA	4a/	4c#\	4a/	-łu-	.	-łu-
2E\ 2A 2c#	4g#/	2e\	4g#/	-sy	.	-sy
.	4f#/	.	4f#/	pie-	.	mu
=43	=43	=43	=43	=43	=43	=43
4EEE/ 4EE	4a/	4c#\	4a/	-ści-	.	kła-
2E\ 2A 2c#	4.g#/	2e\	4.g#/	-ły	.	-dły
.	8f#/	.	8f#/	mu	.	na
*	*v	*v	*	*	*	*
=44	=44	=44	=44	=44	=44
4GGG#/ 4GG#	[<2.d/ [<2.g# [>2.b	2.b\	u-	.	skro-
4E\ 4G# 4d	.	.	.	.	.
4E\ 4G# 4d	.	.	.	.	.
=45	=45	=45	=45	=45	=45
*	*^	*	*	*	*
4EEE/ 4EE	2d/] 2g#] 2b]	4r	2b\	-sta,	.	-nie
4E\ 4G# 4d	.	8r	.	.	.	.
.	.	8A#X\L	.	.	.	.
4E\ 4G# 4d	4d/	8B\	4d/	Mu-	.	U-
.	.	8d\J	.	.	.	.
!!LO:LB:g=original
=46	=46	=46	=46	=46	=46	=46
4GGG#/ 4GG#	4g#/	2.d\	4g#/	-zy-	.	-ste-
2E\ 2G# 2d	4f#/	.	4f#/	-ki	.	-czka
.	4e/	.	4e/	u-	.	An-
=47	=47	=47	=47	=47	=47	=47
4EEE/ 4EE	4g#/	4d\	4g#/	-pa-	.	-to-
2E\ 2G# 2d	4.f#/	2d\	4.f#/	-jał	.	-siek
.	8e/	.	8e/	go	.	i
=48	=48	=48	=48	=48	=48	=48
4AAA/ 4AA	[2.f#/	4c#\	[2.f#/	czar!	.	Mań!
2E\ 2A	.	8B#X\L	.	.	.	.
.	.	8c#\J	.	.	.	.
.	.	8e\L	.	.	.	.
.	.	8g#\J	.	.	.	.
=49	=49	=49	=49	=49	=49	=49
4CC#/ 4C#	2f#/]	4f#\	2f#/]	.	.	.
2E\ 2A	.	4B#X\	.	.	.	.
.	4e/	4c#\	4e/	I	.	Przy-
=50	=50	=50	=50	=50	=50	=50
4A\	4cc#/	2.a\	4cc#\	wrza-	.	-ja-
4c#\ 4e	4b/	.	4b\	-ła	.	-ciół
4c#\ 4e	4a/	.	4a/	za-	.	u-
=51	=51	=51	=51	=51	=51	=51
4Gn\	4cc#/	2.gn\	4cc#\	-ba-	.	-ści-
4A\ 4c# 4e	4b/	.	4b\	-wa	.	-ski
4A\ 4c# 4e	4a/	.	4a/	tak	.	pa-
*	*v	*v	*	*	*	*
!!LO:LB:g=original
=52	=52	=52	=52	=52	=52
4F#\	2.f#:\ 2.a: 2.dd:	4.dd\	mi-	.	-da-
4A\ 4d	.	.	.	.	.
.	.	8dd\	-ła,	.	-ły
4A\ 4d	.	4dd\	choć	.	na
=53	=53	=53	=53	=53	=53
4Fn\	2fn:\ 2a: 2dd: 2ffn:	4ffn\	pu-	.	dło-
4A\ 4d	.	4ff\	-sta,	.	-nie!
4A\ 4d	4dd\	4dd\	W ko-	.	Ka-
=54	=54	=54	=54	=54	=54
4EE/ 4E	4e:/ 4a: 4cc#: 4ee:	4ee\	-ro-	.	-wiar-
4E\ 4A 4c#	4.ee\	4.ee\	-wód	.	-nia
4E\ 4A 4c#	.	.	.	.	.
.	8ee\	8ee\	spla-	.	spła-
=55	=55	=55	=55	=55	=55
4EE/ 4E	4e/	4e/	-ta-	.	-ci-
4E\ 4G# 4d	4e/	4e/	-jąc	.	-ła
4E\ 4G# 4d	4e/	4e/	się	.	swą
=56	=56	=56	=56	=56	=56
4AAA/ 4AA	[<2.A:/ [<2.c#: [>2.e: [>2.a:	[2.a/	mar.	.	dań!
4A\ 4c# 4e	.	.	.	.	.
4EE/ 4E	.	.	.	.	.
=57	=57	=57	=57	=57	=57
4AAA/ 4AA	4A/] 4c#] 4e] 4a]	4a/]	.	.	.
4r	4r	4r	.	.	.
4r	4r	4r	.	.	.
==	==	==	==	==	==
*-	*-	*-	*-	*-	*-
!!!system-decoration: s1{(s2,s3)}
!!!RDF**kern: < = below
!!!RDF**kern: > = above
!!!ENC: Filip Voros
!!!END: 2023-09-02
!!!ENC: Marta Chmielewska
!!!END: 2023-09-22
